src/assets/svg-sprite/iro_04.svg

<svg width="51" height="51" viewBox="0 0 51 51" xmlns="http://www.w3.org/2000/svg">
  <path d="M0.312012 0.927246V50.9272H50.312V0.927246H0.312012ZM1.36201 1.97725H18.162C10.112 4.37725 3.76201 10.7272 1.36201 18.7772V1.97725ZM1.36201 49.8773V33.0773C3.76201 41.1273 10.112 47.4773 18.162 49.8773H1.36201ZM6.16201 30.6772C6.16201 20.1272 14.762 11.5272 25.312 11.5272C35.862 11.5272 44.462 20.1272 44.462 30.6772C44.462 37.8272 40.562 44.0273 34.762 47.3273C37.812 44.6773 39.762 40.7772 39.762 36.4272C39.762 28.4772 33.312 21.9773 25.312 21.9773C17.362 21.9773 10.862 28.4272 10.862 36.4272C10.862 40.7772 12.812 44.6773 15.862 47.3273C10.062 44.0773 6.16201 37.8272 6.16201 30.6772ZM26.012 49.8273C25.762 49.8273 25.562 49.8773 25.312 49.8773C25.062 49.8773 24.862 49.8773 24.612 49.8273C21.212 49.4773 18.562 46.6273 18.562 43.1273C18.562 39.4273 21.562 36.3773 25.312 36.3773C29.012 36.3773 32.062 39.3773 32.062 43.1273C32.062 46.6273 29.362 49.4773 26.012 49.8273ZM33.062 43.1273C33.062 38.8273 29.562 35.3773 25.312 35.3773C21.062 35.3773 17.562 38.8773 17.562 43.1273C17.562 45.3273 18.462 47.2773 19.912 48.7273C15.212 46.6273 11.912 41.9273 11.912 36.4773C11.912 29.0773 17.912 23.0773 25.312 23.0773C32.712 23.0773 38.712 29.0773 38.712 36.4773C38.712 41.9273 35.412 46.6273 30.712 48.7273C32.162 47.2773 33.062 45.3273 33.062 43.1273ZM49.262 49.8773H32.462C40.512 47.4773 46.862 41.1273 49.262 33.0773V49.8773ZM39.012 45.5273C43.012 41.8273 45.512 36.5272 45.512 30.6772C45.512 19.5272 36.462 10.4773 25.312 10.4773C14.162 10.4773 5.11201 19.5272 5.11201 30.6772C5.11201 36.5272 7.61201 41.8273 11.612 45.5273C5.41201 41.1772 1.36201 34.0273 1.36201 25.8773C1.36201 12.6772 12.112 1.92725 25.312 1.92725C38.512 1.92725 49.262 12.6772 49.262 25.8773C49.262 34.0273 45.212 41.2273 39.012 45.5273ZM49.262 18.7772C46.862 10.7272 40.512 4.37725 32.462 1.97725H49.262V18.7772Z"/>
</svg>

<svg width="51" height="51" viewBox="0 0 51 51" xmlns="http://www.w3.org/2000/svg">
  <path d="M.312.927v50h50v-50h-50zm1.05 1.05h16.8c-8.05 2.4-14.4 8.75-16.8 16.8v-16.8zm0 47.9v-16.8c2.4 8.05 8.75 14.4 16.8 16.8h-16.8zm4.8-19.2c0-10.55 8.6-19.15 19.15-19.15 10.55 0 19.15 8.6 19.15 19.15 0 7.15-3.9 13.35-9.7 16.65 3.05-2.65 5-6.55 5-10.9 0-7.95-6.45-14.45-14.45-14.45-7.95 0-14.45 6.45-14.45 14.45 0 4.35 1.95 8.25 5 10.9-5.8-3.25-9.7-9.5-9.7-16.65zm19.85 19.15c-.25 0-.45.05-.7.05-.25 0-.45 0-.7-.05a6.73 6.73 0 01-6.05-6.7c0-3.7 3-6.75 6.75-6.75 3.7 0 6.75 3 6.75 6.75 0 3.5-2.7 6.35-6.05 6.7zm7.05-6.7c0-4.3-3.5-7.75-7.75-7.75s-7.75 3.5-7.75 7.75c0 2.2.9 4.15 2.35 5.6-4.7-2.1-8-6.8-8-12.25 0-7.4 6-13.4 13.4-13.4s13.4 6 13.4 13.4c0 5.45-3.3 10.15-8 12.25 1.45-1.45 2.35-3.4 2.35-5.6zm16.2 6.75h-16.8c8.05-2.4 14.4-8.75 16.8-16.8v16.8zm-10.25-4.35c4-3.7 6.5-9 6.5-14.85 0-11.15-9.05-20.2-20.2-20.2-11.15 0-20.2 9.05-20.2 20.2 0 5.85 2.5 11.15 6.5 14.85-6.2-4.35-10.25-11.5-10.25-19.65 0-13.2 10.75-23.95 23.95-23.95s23.95 10.75 23.95 23.95c0 8.15-4.05 15.35-10.25 19.65zm10.25-26.75c-2.4-8.05-8.75-14.4-16.8-16.8h16.8v16.8z"/>
</svg>
